X: 23825
T: Little Manatee, The
R: jig
M: 6/8
K: Dmajor
AFA f2 e|efd AGF|G2 G BAG|FEE EFG|
AFA f2 e|efd AGF|G2 G BAG|FDD DFG:|
|:A2 F Ade|f2 d dcA|B2 B Bef|gee edB|
A2 F Ade|f2 d dcA|B2 B cde|fdc dd/c/B:|

